images/icons/source/reporting.svg

<svg width="48" height="48" viewBox="0 0 48 48" version="1.1" xmlns="http://www.w3.org/2000/svg" xmlns:xlink="http://www.w3.org/1999/xlink" xmlns:figma="http://www.figma.com/figma/ns">
<title>reporting</title>
<desc>Created using Figma</desc>
<g id="Canvas" transform="translate(57 125)" figma:type="canvas">
<mask id="mask0_alpha" mask-type="alpha">
<path d="M -57 -125L -9 -125L -9 -77L -57 -77L -57 -125Z" fill="#FFFFFF"/>
</mask>
<g id="reporting" style="mix-blend-mode:normal;" mask="url(#mask0_alpha)" figma:type="frame">
<g id="Vector" style="mix-blend-mode:normal;" figma:type="vector">
<use xlink:href="#path0_fill" transform="translate(-57 -120)" fill="#3BB75E" style="mix-blend-mode:normal;"/>
<use xlink:href="#path1_fill" transform="translate(-57 -120)" fill="#3BB75E" style="mix-blend-mode:normal;"/>
<use xlink:href="#path2_fill" transform="translate(-57 -120)" fill="#3BB75E" style="mix-blend-mode:normal;"/>
<use xlink:href="#path3_fill" transform="translate(-57 -120)" fill="#3BB75E" style="mix-blend-mode:normal;"/>
<use xlink:href="#path4_fill" transform="translate(-57 -120)" fill="#3BB75E" style="mix-blend-mode:normal;"/>
<use xlink:href="#path5_fill" transform="translate(-57 -120)" fill="#3BB75E" style="mix-blend-mode:normal;"/>
<use xlink:href="#path6_fill" transform="translate(-57 -120)" fill="#3BB75E" style="mix-blend-mode:normal;"/>
</g>
</g>
</g>
<defs>
<path id="path0_fill" d="M 48 41.8281C 48 41.2758 47.5523 40.8281 47 40.8281L 1 40.8281C 0.447715 40.8281 0 41.2758 0 41.8281L 0 42C 0 42.5523 0.447715 43 1 43L 47 43C 47.5523 43 48 42.5523 48 42L 48 41.8281Z"/>
<path id="path1_fill" d="M 8.72727 35.3123C 8.72727 34.76 8.27956 34.3123 7.72727 34.3123L 7.54545 34.3123C 6.99317 34.3123 6.54545 34.76 6.54545 35.3123L 6.54545 37.6561C 6.54545 38.2084 6.99317 38.6561 7.54545 38.6561L 7.72727 38.6561C 8.27956 38.6561 8.72727 38.2084 8.72727 37.6561L 8.72727 35.3123Z"/>
<path id="path2_fill" d="M 19.6364 28.7965C 19.6364 28.2442 19.1886 27.7965 18.6364 27.7965L 18.4545 27.7965C 17.9023 27.7965 17.4545 28.2442 17.4545 28.7965L 17.4545 37.6561C 17.4545 38.2084 17.9023 38.6561 18.4545 38.6561L 18.6364 38.6561C 19.1886 38.6561 19.6364 38.2084 19.6364 37.6561L 19.6364 28.7965Z"/>
<path id="path3_fill" d="M 30.5455 20.1087C 30.5455 19.5564 30.0977 19.1087 29.5455 19.1087L 29.3636 19.1087C 28.8114 19.1087 28.3636 19.5564 28.3636 20.1087L 28.3636 37.6561C 28.3636 38.2084 28.8114 38.6561 29.3636 38.6561L 29.5455 38.6561C 30.0977 38.6561 30.5455 38.2084 30.5455 37.6561L 30.5455 20.1087Z"/>
<path id="path4_fill" d="M 41.4545 9.24906C 41.4545 8.69678 41.0068 8.24906 40.4545 8.24906L 40.2727 8.24906C 39.7204 8.24906 39.2727 8.69678 39.2727 9.24906L 39.2727 37.6561C 39.2727 38.2084 39.7204 38.6561 40.2727 38.6561L 40.4545 38.6561C 41.0068 38.6561 41.4545 38.2084 41.4545 37.6561L 41.4545 9.24906Z"/>
<path id="path5_fill" fill-rule="evenodd" d="M 31.8577 0.38796C 32.3653 0.173491 32.9507 0.41001 33.1668 0.916864L 35.7924 7.07423C 36.0095 7.58343 35.7716 8.17214 35.2617 8.38761L 35.0957 8.45778C 34.5881 8.67225 34.0027 8.43573 33.7866 7.92888L 32.011 3.76478C 31.7948 3.25793 31.2094 3.02141 30.7019 3.23588L 26.513 5.00588C 26.0055 5.22035 25.42 4.98383 25.2039 4.47698L 25.1359 4.31744C 24.9188 3.80824 25.1566 3.21953 25.6665 3.00407L 31.8577 0.38796Z"/>
<path id="path6_fill" fill-rule="evenodd" d="M 7.05113 27.3896C 7.05114 27.3896 7.05114 27.3896 7.05114 27.3896C 8.09572 27.0623 9.25596 26.6355 10.5031 26.0974C 10.5031 26.0974 10.5031 26.0974 10.5031 26.0974C 14.0579 24.5636 17.6104 22.4431 20.9276 19.6402C 20.9276 19.6402 20.9276 19.6402 20.9276 19.6402C 25.7322 15.5803 29.6257 10.4301 32.2772 4.06941C 32.2772 4.06941 32.2772 4.06941 32.2772 4.06941L 32.3093 3.99237C 32.5222 3.48144 32.2796 2.89469 31.768 2.68336L 31.6013 2.6145C 31.0921 2.40413 30.5085 2.64539 30.2965 3.154L 30.2619 3.23698C 30.2619 3.23698 30.2619 3.23698 30.2619 3.23698C 27.7477 9.26855 24.0644 14.1407 19.5156 17.9843C 19.5156 17.9843 19.5156 17.9843 19.5156 17.9843C 16.3722 20.6404 13.0027 22.6517 9.63541 24.1046C 9.63541 24.1046 9.63541 24.1046 9.63541 24.1046C 8.45983 24.6118 7.37041 25.0126 6.39607 25.3179C 6.39607 25.3179 6.39607 25.3179 6.39607 25.3179C 5.81999 25.4984 5.41642 25.6058 5.21433 25.6512C 5.21433 25.6512 5.21433 25.6512 5.21433 25.6512L 5.12777 25.6706C 4.58818 25.7919 4.24948 26.3281 4.3718 26.8675L 4.40993 27.0356C 4.5319 27.5735 5.06632 27.911 5.60442 27.7901L 5.69479 27.7698C 5.69479 27.7698 5.69479 27.7698 5.69479 27.7698C 5.95417 27.7115 6.41585 27.5887 7.05113 27.3896Z"/>
</defs>
</svg>

<svg width="48" height="48" viewBox="0 0 48 48" xmlns="http://www.w3.org/2000/svg" xmlns:xlink="http://www.w3.org/1999/xlink" xmlns:figma="http://www.figma.com/figma/ns">
    <title>
        reporting
    </title>
    <desc>
        Created using Figma
    </desc>
    <g transform="translate(57 125)" figma:type="canvas">
        <mask id="a">
            <path d="M-57-125h48v48h-48v-48z" fill="#FFF"/>
        </mask>
        <g style="mix-blend-mode:normal" mask="url(#a)" figma:type="frame">
            <g style="mix-blend-mode:normal" figma:type="vector" transform="translate(-57 -120)" fill="#3BB75E">
                <use xlink:href="#b" style="mix-blend-mode:normal"/>
                <use xlink:href="#c" style="mix-blend-mode:normal"/>
                <use xlink:href="#d" style="mix-blend-mode:normal"/>
                <use xlink:href="#e" style="mix-blend-mode:normal"/>
                <use xlink:href="#f" style="mix-blend-mode:normal"/>
                <use xlink:href="#g" style="mix-blend-mode:normal"/>
                <use xlink:href="#h" style="mix-blend-mode:normal"/>
            </g>
        </g>
    </g>
    <defs>
        <path id="b" d="M48 41.828a1 1 0 0 0-1-1H1a1 1 0 0 0-1 1V42a1 1 0 0 0 1 1h46a1 1 0 0 0 1-1v-.172z"/>
        <path id="c" d="M8.727 35.312a1 1 0 0 0-1-1h-.182a1 1 0 0 0-1 1v2.344a1 1 0 0 0 1 1h.182a1 1 0 0 0 1-1v-2.344z"/>
        <path id="d" d="M19.636 28.797a1 1 0 0 0-1-1h-.181a1 1 0 0 0-1 1v8.86a1 1 0 0 0 1 1h.181a1 1 0 0 0 1-1v-8.86z"/>
        <path id="e" d="M30.546 20.109a1 1 0 0 0-1-1h-.182a1 1 0 0 0-1 1v17.547a1 1 0 0 0 1 1h.181a1 1 0 0 0 1-1V20.11z"/>
        <path id="f" d="M41.455 9.25a1 1 0 0 0-1-1h-.182a1 1 0 0 0-1 1v28.406a1 1 0 0 0 1 1h.181a1 1 0 0 0 1-1V9.25z"/>
        <path id="g" fill-rule="evenodd" d="M31.858.388a1 1 0 0 1 1.309.529l2.625 6.157a1 1 0 0 1-.53 1.314l-.166.07a1 1 0 0 1-1.31-.53l-1.775-4.163a1 1 0 0 0-1.31-.53l-4.188 1.77a1 1 0 0 1-1.31-.528l-.067-.16a1 1 0 0 1 .53-1.313L31.858.388z"/>
        <path id="h" fill-rule="evenodd" d="M7.051 27.39a35.746 35.746 0 0 0 3.452-1.293 41.822 41.822 0 0 0 10.425-6.457c4.804-4.06 8.698-9.21 11.35-15.57l.031-.078a1 1 0 0 0-.541-1.309l-.167-.068a1 1 0 0 0-1.304.539l-.035.083c-2.514 6.032-6.198 10.904-10.746 14.747a39.652 39.652 0 0 1-9.88 6.12 33.578 33.578 0 0 1-3.24 1.214 16.6 16.6 0 0 1-1.182.333l-.086.02a1 1 0 0 0-.756 1.197l.038.168a1 1 0 0 0 1.194.754l.09-.02c.26-.058.722-.181 1.357-.38z"/>
    </defs>
</svg>
